X: 295
T: Down Among the Ditches
B: O'Neill's 295
N: "Lively"
N: "Collected by J.O'Neill"
Z: 1997 by John Chambers <jc@trillian.mit.edu>
M: 6/8
L: 1/8
K:D
A \
|A2d def|dcB A2F|A2d def|agfe fdB \
|A2d def|dcB A2F|F2D GEC|D2D D2||
||D \
|DFA ABc|GFE E2F|DFA ABc|d3 F2E \
|DFA ABc|GFE EFG|dAF GEC|D2D D2||
